X: 12635
T: Farley Bridge, The
R: reel
M: 4/4
K: Dmajor
|:Addf edef|gf f2 dAAG|FddA ffAe-|eddf gBBA|
FddA deef|gf f2 dGGA|edBe- efed|1 BA A6:|2 BA A4ef||
|:gffd ddBg-|gffd ddAG|FddA ffAe|edde- effg|
gffd ddBg-|gffd ddBA|edBe- efed|BA A4ef:|

